rospo-dark/16x16/actions/reply-all.svg

<svg height="16" viewBox="0 0 16 16" width="16" xmlns="http://www.w3.org/2000/svg"><path d="m6.5 1.5-6.47070312 4.5 6.47070312 4.5v-1.0429688l-4.9707031-3.4570312 4.9707031-3.4570312zm3.5.0039062-6.46875 4.5 6.46875 4.4999998v-2.4999998h.5c1.3649 0 2.5716.8733501 2.9375 1.9999998.43763 1.3475-1.4375 4-1.4375 4s4-1.5 4-4.7499998c0-3.1235-2-5.25-5-5.25h-1z" fill="#d3dae3"/></svg>

<?xml version="1.0" encoding="UTF-8" standalone="no"?>
<svg xmlns="http://www.w3.org/2000/svg" width="22" height="22" viewBox="0 0 22 22">
 <defs>
  <style type="text/css" id="current-color-scheme">
   .ColorScheme-Text { color:#d3dae3; } .ColorScheme-Highlight { color:#5294e2; }
  </style>
 </defs>
 <path style="fill:currentColor;opacity:1" class="ColorScheme-Text" transform="translate(3 3)" d="M 6.5 1.5 L 0.029296875 6 L 6.5 10.5 L 6.5 9.4570312 L 1.5292969 6 L 6.5 2.5429688 L 6.5 1.5 z M 10 1.5039062 L 3.53125 6.0039062 L 10 10.503906 L 10 8.0039062 L 10.5 8.0039062 C 11.8649 8.0039062 13.0716 8.8772563 13.4375 10.003906 C 13.87513 11.351406 12 14.003906 12 14.003906 C 12 14.003906 16 12.503906 16 9.2539062 C 16 6.1304062 14 4.0039062 11 4.0039062 L 10 4.0039062 L 10 1.5039062 z"/>
</svg>
